X: 20391
T: LAMPLIGHTER'S HORNPIPE
C:
%R: hornpipe, reel
B: Elias Howe "The Musician's Companion" 1843 p.39 #1
S: http://imslp.org/wiki/The_Musician's_Companion_(Howe,_Elias)
Z: 2015 John Chambers <jc:trillian.mit.edu>
M: 2/4
L: 1/16
K: A
% - - - - - - - - - - - - - - - - - - - - - - - - -
cd |\
ec ec eagf | ec ec eagf | ec ec fedc | d2B2B2 cd |\
ec ec eagf | ec ec eagf | efde cAcG | E2A2A2 :|
|: cd |\
edcd e2 fe | dcBc d2 ed | cAcA dcBA | B2B2B2 cd |\
edcd e2 fe | dcBc d2 ed | caAe dfBd | E2A2A2 :|
% - - - - - - - - - - - - - - - - - - - - - - - - -

%%sep 1 1 500

